img/your-api.svg

<svg width="320" height="90" viewBox="0 0 320 90" fill="none" xmlns="http://www.w3.org/2000/svg">
<g clip-path="url(#clip0_0_3)">
<path fill-rule="evenodd" clip-rule="evenodd" d="M86.137 7.198C86.137 3.226 83.05 0 79.247 0H6.89C3.088 0 0 3.226 0 7.198V82.783C0 86.756 3.088 89.982 6.891 89.982H79.246C83.049 89.982 86.137 86.756 86.137 82.783V7.198ZM319.999 7.198C319.999 3.226 316.912 0 313.108 0H240.753C236.95 0 233.862 3.226 233.862 7.198V82.783C233.862 86.756 236.95 89.982 240.753 89.982H313.108C316.912 89.982 319.999 86.756 319.999 82.783V7.198Z" fill="#00023B"/>
<path d="M35.608 15.783L15.16 52.78L50.576 74.141L71.024 37.144L35.608 15.784V15.783Z" fill="#00023B"/>
<path d="M50.782 74.759L14.597 52.96L35.463 15.16L71.649 37.003L50.782 74.759ZM15.785 52.593L50.43 73.517L70.46 37.326L35.815 16.402L15.785 52.593Z" fill="#EA1763" fill-opacity="0.4"/>
<path d="M50.808 14.814L14.18 36.906L35.327 75.168L71.955 53.077L50.808 14.814Z" fill="#00023B"/>
<path d="M35.33 75.08L14.243 36.913L50.825 14.839L71.955 53.054L35.33 75.08ZM16.048 37.419L35.858 73.243L70.15 52.547L50.34 16.724L16.048 37.419Z" fill="#EA1763" fill-opacity="0.7"/>
<path d="M63.547 23.576H22.65V66.298H63.547V23.576Z" fill="#00023B"/>
<path d="M64.648 67.493H21.551V22.426H64.648V67.493ZM23.752 65.193H62.447V24.727H23.752V65.195V65.193Z" fill="#EA1763"/>
<path d="M40.216 54.709L37.266 45.879H31.368V54.709H28.902V32.543H37.046C38.631 32.543 39.82 32.819 40.612 33.371C41.405 33.922 41.932 34.658 42.152 35.578C42.373 36.498 42.505 37.693 42.505 39.165C42.505 40.775 42.329 42.108 41.933 43.165C41.581 44.224 40.788 44.959 39.6 45.373L42.857 54.709H40.216ZM38.763 43.166C39.292 42.844 39.643 42.384 39.82 41.786C39.996 41.188 40.084 40.315 40.084 39.211C40.084 38.061 39.996 37.234 39.864 36.636C39.732 36.038 39.38 35.624 38.851 35.302C38.323 34.98 37.531 34.842 36.431 34.842H31.368V43.626H36.254C37.354 43.626 38.19 43.488 38.763 43.166ZM46.952 53.927C46.248 53.237 45.852 51.996 45.852 50.157C45.852 48.915 45.984 47.949 46.248 47.259C46.512 46.569 46.952 46.063 47.568 45.742C48.185 45.42 49.065 45.282 50.21 45.282C50.782 45.282 52.455 45.328 55.228 45.42V44.316C55.228 42.982 55.14 42.016 54.92 41.465C54.7 40.913 54.348 40.545 53.775 40.361C53.247 40.223 52.323 40.131 51.002 40.131C50.43 40.131 49.682 40.177 48.845 40.223C47.965 40.269 47.26 40.361 46.732 40.453V38.475C48.185 38.154 49.858 38.015 51.751 38.015C53.379 38.015 54.611 38.2 55.448 38.568C56.241 38.935 56.813 39.579 57.121 40.453C57.429 41.327 57.561 42.614 57.561 44.316V54.663H55.448L55.316 52.363H55.184C54.832 53.375 54.216 54.065 53.379 54.387C52.543 54.709 51.574 54.893 50.474 54.893C48.845 54.939 47.7 54.617 46.952 53.927ZM53.467 52.547C53.7362 52.4557 53.9842 52.3109 54.1961 52.1214C54.408 51.9318 54.5794 51.7014 54.7 51.444C55.096 50.616 55.272 49.466 55.272 48.087V47.167H50.87C50.122 47.167 49.55 47.259 49.197 47.397C48.845 47.535 48.581 47.811 48.449 48.225C48.317 48.639 48.229 49.236 48.229 50.065C48.229 50.892 48.317 51.49 48.493 51.858C48.669 52.226 48.977 52.502 49.373 52.685C49.813 52.823 50.473 52.915 51.354 52.915C52.191 52.823 52.895 52.73 53.467 52.547Z" fill="white"/>
<path fill-rule="evenodd" clip-rule="evenodd" d="M132.721 78.983C131.677 79.0942 130.628 79.15 129.578 79.15C112.701 79.15 99 64.837 99 47.207C99 29.577 112.701 15.263 129.578 15.263C131.127 15.263 132.649 15.383 134.136 15.616C139.527 6.516 149.169 0.449005 160.157 0.449005C171.002 0.449005 180.536 6.359 185.966 15.263H185.998C202.875 15.263 216.577 29.576 216.577 47.207C216.577 64.837 202.875 79.15 185.998 79.15C183.55 79.1515 181.111 78.8468 178.739 78.243C173.128 85.147 164.76 89.531 155.419 89.531C146.417 89.531 138.319 85.459 132.721 78.983Z" fill="white"/>
<path fill-rule="evenodd" clip-rule="evenodd" d="M132.721 78.983C131.677 79.0942 130.628 79.15 129.578 79.15C112.701 79.15 99 64.837 99 47.207C99 29.577 112.701 15.263 129.578 15.263C131.127 15.263 132.649 15.383 134.136 15.616C139.527 6.516 149.169 0.449005 160.157 0.449005C171.002 0.449005 180.536 6.359 185.966 15.263H185.998C202.875 15.263 216.577 29.576 216.577 47.207C216.577 64.837 202.875 79.15 185.998 79.15C183.55 79.1515 181.111 78.8468 178.739 78.243C173.128 85.147 164.76 89.531 155.419 89.531C146.417 89.531 138.319 85.459 132.721 78.983ZM133.999 77.777C139.282 83.888 146.924 87.732 155.419 87.732C164.234 87.732 172.13 83.594 177.425 77.078C177.626 76.8257 177.895 76.6365 178.2 76.5329C178.506 76.4293 178.834 76.4158 179.147 76.494C181.386 77.064 183.688 77.3516 185.998 77.35C201.924 77.35 214.854 63.843 214.854 47.207C214.854 30.57 201.924 17.063 185.998 17.063H185.967C185.673 17.0611 185.385 16.9834 185.131 16.8375C184.876 16.6915 184.663 16.4823 184.513 16.23C179.389 7.828 170.392 2.24901 160.157 2.24901C149.787 2.24901 140.689 7.97601 135.601 16.563C135.431 16.8585 135.176 17.0961 134.869 17.2446C134.563 17.3932 134.218 17.446 133.881 17.396C132.457 17.1738 131.019 17.0625 129.578 17.063C113.652 17.063 100.722 30.57 100.722 47.207C100.722 63.843 113.652 77.35 129.578 77.35C130.58 77.35 131.57 77.297 132.545 77.193C132.817 77.1652 133.091 77.2039 133.344 77.3056C133.597 77.4073 133.822 77.5691 133.999 77.777Z" fill="#00023B"/>
<path d="M267.207 26.434L262.752 35.434V39.878H259.617V35.435L255.162 26.435H258.719L261.212 32.065L263.687 26.435L267.207 26.434ZM273.127 40.031C272.119 40.031 271.221 39.801 270.414 39.361C269.618 38.9122 268.963 38.2486 268.526 37.446C268.068 36.622 267.848 35.646 267.848 34.535C267.848 33.443 268.086 32.467 268.544 31.643C268.977 30.826 269.64 30.1537 270.451 29.709C271.257 29.269 272.156 29.039 273.164 29.039C274.172 29.039 275.071 29.269 275.877 29.709C276.688 30.1534 277.351 30.8258 277.784 31.643C278.242 32.467 278.48 33.443 278.48 34.535C278.48 35.626 278.242 36.603 277.784 37.445C277.307 38.269 276.666 38.92 275.859 39.361C275.034 39.801 274.136 40.031 273.127 40.031ZM273.127 37.197C273.732 37.197 274.246 36.967 274.667 36.507C275.089 36.047 275.291 35.397 275.291 34.535C275.291 33.673 275.089 33.022 274.686 32.562C274.264 32.102 273.769 31.872 273.164 31.872C272.875 31.867 272.589 31.9264 272.325 32.0457C272.062 32.165 271.829 32.3414 271.642 32.562C271.239 33.002 271.038 33.673 271.038 34.535C271.038 35.397 271.239 36.048 271.642 36.507C272.027 36.967 272.522 37.197 273.127 37.197ZM290.25 29.192V39.88H287.116V38.424C286.796 38.9079 286.353 39.2979 285.832 39.554C285.272 39.8466 284.649 39.9977 284.017 39.994C283.229 39.994 282.551 39.803 281.946 39.439C281.341 39.075 280.883 38.559 280.553 37.869C280.223 37.179 280.058 36.375 280.058 35.436V29.193H283.174V34.996C283.174 35.705 283.357 36.26 283.706 36.662C284.054 37.064 284.531 37.256 285.136 37.256C285.741 37.256 286.236 37.064 286.584 36.662C286.932 36.26 287.116 35.705 287.116 34.996V29.193H290.25V29.192ZM295.639 30.973C295.977 30.407 296.449 29.9331 297.014 29.593C297.563 29.2482 298.199 29.069 298.847 29.077V32.543H297.985C297.197 32.543 296.61 32.715 296.225 33.079C295.84 33.424 295.639 34.037 295.639 34.918V39.878H292.504V29.192H295.639V30.973ZM271.093 58.57H266.29L265.52 60.944H262.238L266.895 47.5H270.525L275.181 60.944H271.863L271.093 58.57ZM270.286 56.041L268.691 51.12L267.115 56.041H270.286ZM286.402 51.828C286.402 52.613 286.237 53.322 285.888 53.973C285.54 54.605 285.027 55.122 284.312 55.524C283.597 55.926 282.717 56.118 281.672 56.118H279.729V60.944H276.594V47.5H281.672C282.698 47.5 283.56 47.691 284.275 48.055C284.99 48.419 285.522 48.936 285.87 49.587C286.218 50.239 286.402 50.985 286.402 51.828ZM281.434 53.513C282.038 53.513 282.478 53.36 282.772 53.073C283.065 52.786 283.212 52.364 283.212 51.828C283.212 51.292 283.065 50.87 282.772 50.583C282.478 50.296 282.038 50.143 281.434 50.143H279.729V53.513H281.434ZM291.165 47.5H288.03V60.944H291.165V47.5Z" fill="white"/>
<path fill-rule="evenodd" clip-rule="evenodd" d="M195.531 48.772V45.643H225.478V42.738L229.756 47.208L225.478 51.676V48.772H195.531ZM88.563 48.772V45.643H118.509V42.738L122.787 47.208L118.509 51.676V48.772H88.562H88.563Z" fill="#00023B"/>
<path d="M131.138 53.5652V40.4743H133.906V45.8756H139.524V40.4743H142.286V53.5652H139.524V48.1575H133.906V53.5652H131.138ZM143.349 42.7563V40.4743H154.1V42.7563H150.092V53.5652H147.357V42.7563H143.349ZM154.652 42.7563V40.4743H165.404V42.7563H161.396V53.5652H158.66V42.7563H154.652ZM166.454 53.5652V40.4743H171.619C172.612 40.4743 173.458 40.6639 174.157 41.0432C174.856 41.4182 175.388 41.9402 175.755 42.6092C176.126 43.274 176.311 44.0411 176.311 44.9104C176.311 45.7797 176.123 46.5468 175.748 47.2115C175.373 47.8763 174.83 48.3941 174.118 48.7648C173.411 49.1355 172.554 49.3209 171.549 49.3209H168.257V47.1029H171.101C171.634 47.1029 172.073 47.0112 172.418 46.828C172.768 46.6405 173.028 46.3827 173.198 46.0546C173.373 45.7222 173.46 45.3408 173.46 44.9104C173.46 44.4757 173.373 44.0965 173.198 43.7726C173.028 43.4445 172.768 43.1909 172.418 43.0119C172.069 42.8287 171.626 42.7371 171.089 42.7371H169.222V53.5652H166.454ZM184.49 44.2392C184.439 43.7236 184.22 43.323 183.832 43.0375C183.444 42.752 182.918 42.6092 182.253 42.6092C181.801 42.6092 181.42 42.6732 181.109 42.801C180.798 42.9246 180.559 43.0972 180.393 43.3188C180.231 43.5404 180.15 43.7918 180.15 44.073C180.141 44.3074 180.19 44.5119 180.297 44.6867C180.408 44.8614 180.559 45.0127 180.751 45.1405C180.943 45.2641 181.164 45.3727 181.416 45.4665C181.667 45.556 181.936 45.6327 182.221 45.6966L183.397 45.9779C183.968 46.1057 184.492 46.2762 184.97 46.4892C185.447 46.7023 185.86 46.9644 186.21 47.2754C186.559 47.5865 186.83 47.953 187.021 48.3749C187.217 48.7968 187.318 49.2804 187.322 49.8259C187.318 50.627 187.113 51.3216 186.708 51.9097C186.308 52.4935 185.728 52.9473 184.97 53.2712C184.215 53.5908 183.306 53.7506 182.24 53.7506C181.183 53.7506 180.263 53.5887 179.479 53.2648C178.699 52.9409 178.09 52.4615 177.651 51.8266C177.216 51.1874 176.988 50.3969 176.967 49.4551H179.645C179.675 49.8941 179.801 50.2605 180.022 50.5546C180.248 50.8443 180.548 51.0638 180.923 51.2129C181.303 51.3578 181.731 51.4303 182.208 51.4303C182.677 51.4303 183.084 51.3621 183.429 51.2257C183.779 51.0894 184.049 50.8997 184.241 50.6568C184.433 50.4139 184.529 50.1348 184.529 49.8195C184.529 49.5254 184.441 49.2783 184.266 49.078C184.096 48.8777 183.845 48.7073 183.512 48.5666C183.184 48.426 182.781 48.2982 182.304 48.1831L180.879 47.8252C179.775 47.5567 178.904 47.1369 178.264 46.5659C177.625 45.9949 177.308 45.2257 177.312 44.2584C177.308 43.4658 177.519 42.7733 177.945 42.181C178.375 41.5887 178.965 41.1263 179.715 40.7939C180.465 40.4615 181.318 40.2953 182.272 40.2953C183.244 40.2953 184.092 40.4615 184.816 40.7939C185.545 41.1263 186.112 41.5887 186.516 42.181C186.921 42.7733 187.13 43.4594 187.143 44.2392H184.49Z" fill="#00023B"/>
</g>
<defs>
<clipPath id="clip0_0_3">
<rect width="320" height="90" fill="white"/>
</clipPath>
</defs>
</svg>

<svg xmlns="http://www.w3.org/2000/svg" width="320" height="90" fill="none" viewBox="0 0 320 90">
  <path fill="#00023B" fill-rule="evenodd" d="M86.137 7.198C86.137 3.226 83.05 0 79.247 0H6.89C3.088 0 0 3.226 0 7.198v75.585c0 3.973 3.088 7.199 6.891 7.199h72.355c3.803 0 6.891-3.226 6.891-7.199V7.198Zm233.862 0c0-3.972-3.087-7.198-6.891-7.198h-72.355c-3.803 0-6.891 3.226-6.891 7.198v75.585c0 3.973 3.088 7.199 6.891 7.199h72.355c3.804 0 6.891-3.226 6.891-7.199V7.198Z" clip-rule="evenodd"/>
  <path fill="#00023B" d="M35.608 15.783 15.16 52.78l35.416 21.361 20.448-36.997-35.416-21.36Z"/>
  <path fill="#EA1763" fill-opacity=".4" d="M50.782 74.759 14.597 52.96l20.866-37.8 36.186 21.843-20.867 37.755ZM15.785 52.593 50.43 73.517l20.03-36.191-34.645-20.924-20.03 36.191Z"/>
  <path fill="#00023B" d="M50.808 14.814 14.18 36.906l21.147 38.262 36.628-22.091-21.147-38.263Z"/>
  <path fill="#EA1763" fill-opacity=".7" d="M35.33 75.08 14.243 36.913l36.582-22.074 21.13 38.215L35.33 75.081ZM16.048 37.419l19.81 35.824L70.15 52.547 50.34 16.724 16.048 37.418Z"/>
  <path fill="#00023B" d="M63.547 23.576H22.65v42.722h40.897V23.576Z"/>
  <path fill="#EA1763" d="M64.648 67.493H21.551V22.426h43.097v45.067Zm-40.896-2.3h38.695V24.727H23.752v40.468Z"/>
  <path fill="#fff" d="m40.216 54.709-2.95-8.83h-5.898v8.83h-2.466V32.543h8.144c1.585 0 2.774.276 3.566.828.793.551 1.32 1.287 1.54 2.207.221.92.353 2.115.353 3.587 0 1.61-.176 2.943-.572 4-.352 1.059-1.145 1.794-2.333 2.208l3.257 9.336h-2.641Zm-1.453-11.543c.529-.322.88-.782 1.057-1.38.176-.598.264-1.471.264-2.575 0-1.15-.088-1.977-.22-2.575-.132-.598-.484-1.012-1.013-1.334-.528-.322-1.32-.46-2.42-.46h-5.063v8.784h4.886c1.1 0 1.937-.138 2.51-.46Zm8.189 10.761c-.704-.69-1.1-1.931-1.1-3.77 0-1.242.132-2.208.396-2.898s.704-1.196 1.32-1.517c.617-.322 1.497-.46 2.642-.46.572 0 2.245.046 5.018.138v-1.104c0-1.334-.088-2.3-.308-2.851-.22-.552-.572-.92-1.145-1.104-.528-.138-1.452-.23-2.773-.23-.572 0-1.32.046-2.157.092-.88.046-1.585.138-2.113.23v-1.978c1.453-.321 3.126-.46 5.019-.46 1.628 0 2.86.185 3.697.553.793.367 1.365 1.011 1.673 1.885.308.874.44 2.161.44 3.863v10.347h-2.113l-.132-2.3h-.132c-.352 1.012-.968 1.702-1.805 2.024-.836.322-1.805.506-2.905.506-1.629.046-2.774-.276-3.522-.966Zm6.515-1.38a2.11 2.11 0 0 0 1.233-1.103c.396-.828.572-1.978.572-3.357v-.92H50.87c-.748 0-1.32.092-1.673.23-.352.138-.616.414-.748.828s-.22 1.011-.22 1.84c0 .827.088 1.425.264 1.793.176.368.484.644.88.827.44.138 1.1.23 1.981.23.837-.092 1.541-.184 2.113-.367Z"/>
  <path fill="#fff" fill-rule="evenodd" d="M132.779 78.983a29.68 29.68 0 0 1-3.143.167c-16.877 0-30.578-14.313-30.578-31.943 0-17.63 13.701-31.944 30.578-31.944 1.549 0 3.071.12 4.558.353 5.391-9.1 15.033-15.167 26.021-15.167 10.845 0 20.379 5.91 25.809 14.814h.032c16.877 0 30.579 14.313 30.579 31.944 0 17.63-13.702 31.943-30.579 31.943a29.36 29.36 0 0 1-7.259-.907c-5.611 6.904-13.979 11.288-23.32 11.288-9.002 0-17.1-4.072-22.698-10.548Z" clip-rule="evenodd"/>
  <path fill="#00023B" fill-rule="evenodd" d="M132.779 78.983a29.68 29.68 0 0 1-3.143.167c-16.877 0-30.578-14.313-30.578-31.943 0-17.63 13.701-31.944 30.578-31.944 1.549 0 3.071.12 4.558.353 5.391-9.1 15.033-15.167 26.021-15.167 10.845 0 20.379 5.91 25.809 14.814h.032c16.877 0 30.579 14.313 30.579 31.944 0 17.63-13.702 31.943-30.579 31.943a29.36 29.36 0 0 1-7.259-.907c-5.611 6.904-13.979 11.288-23.32 11.288-9.002 0-17.1-4.072-22.698-10.548Zm1.278-1.206c5.283 6.111 12.925 9.955 21.42 9.955 8.815 0 16.711-4.138 22.006-10.654a1.68 1.68 0 0 1 1.722-.584 27.69 27.69 0 0 0 6.851.856c15.926 0 28.856-13.507 28.856-30.143 0-16.637-12.93-30.144-28.856-30.144h-.031a1.705 1.705 0 0 1-1.454-.833c-5.124-8.402-14.121-13.981-24.356-13.981-10.37 0-19.468 5.727-24.556 14.314a1.697 1.697 0 0 1-1.72.833 27.843 27.843 0 0 0-4.303-.333c-15.926 0-28.856 13.507-28.856 30.144 0 16.636 12.93 30.143 28.856 30.143 1.002 0 1.992-.053 2.967-.157a1.684 1.684 0 0 1 1.454.584Z" clip-rule="evenodd"/>
  <path fill="#00023B" d="M148.706 40.485v13.444h-3.135v-5.535h-4.877v5.535h-3.134V40.485h3.134v5.266h4.877v-5.266h3.135Zm11.514 0v2.623h-3.41v10.82h-3.134v-10.82h-3.41v-2.623h9.954Zm10.834 0v2.623h-3.41v10.82h-3.134v-10.82h-3.41v-2.623h9.954Zm11.385 4.328c0 .779-.171 1.49-.514 2.135-.342.645-.867 1.165-1.576 1.561-.709.396-1.589.594-2.64.594h-1.943v4.826h-3.135V40.485h5.078c1.027 0 1.894.185 2.603.555.709.37 1.241.881 1.595 1.532.355.651.532 1.398.532 2.241Zm-4.968 1.685c.598 0 1.045-.147 1.338-.44.293-.294.44-.709.44-1.245 0-.536-.147-.951-.44-1.245-.293-.293-.74-.44-1.338-.44h-1.705v3.37h1.705Z"/>
  <path fill="#fff" d="m267.207 26.434-4.455 9v4.444h-3.135v-4.443l-4.455-9h3.557l2.493 5.63 2.475-5.63h3.52Zm5.92 13.597c-1.008 0-1.906-.23-2.713-.67a4.878 4.878 0 0 1-1.888-1.915c-.458-.824-.678-1.8-.678-2.911 0-1.092.238-2.068.696-2.892a4.737 4.737 0 0 1 1.907-1.934c.806-.44 1.705-.67 2.713-.67s1.907.23 2.713.67a4.73 4.73 0 0 1 1.907 1.934c.458.824.696 1.8.696 2.892 0 1.091-.238 2.068-.696 2.91-.477.824-1.118 1.475-1.925 1.916-.825.44-1.723.67-2.732.67Zm0-2.834c.605 0 1.119-.23 1.54-.69.422-.46.624-1.11.624-1.972 0-.862-.202-1.513-.605-1.973-.422-.46-.917-.69-1.522-.69a1.95 1.95 0 0 0-1.522.69c-.403.44-.604 1.111-.604 1.973 0 .862.201 1.513.604 1.972.385.46.88.69 1.485.69Zm17.123-8.005V39.88h-3.134v-1.456a3.27 3.27 0 0 1-1.284 1.13 3.87 3.87 0 0 1-1.815.44c-.788 0-1.466-.191-2.071-.555-.605-.364-1.063-.88-1.393-1.57-.33-.69-.495-1.494-.495-2.433v-6.243h3.116v5.803c0 .709.183 1.264.532 1.666.348.402.825.594 1.43.594s1.1-.192 1.448-.594c.348-.402.532-.957.532-1.666v-5.803h3.134Zm5.389 1.781a4.013 4.013 0 0 1 1.375-1.38 3.367 3.367 0 0 1 1.833-.516v3.466h-.862c-.788 0-1.375.172-1.76.536-.385.345-.586.958-.586 1.839v4.96h-3.135V29.192h3.135v1.78ZM271.093 58.57h-4.803l-.77 2.374h-3.282l4.657-13.444h3.63l4.656 13.444h-3.318l-.77-2.375Zm-.807-2.529-1.595-4.921-1.576 4.921h3.171Zm16.116-4.213c0 .785-.165 1.494-.514 2.145-.348.632-.861 1.149-1.576 1.551-.715.402-1.595.594-2.64.594h-1.943v4.826h-3.135V47.5h5.078c1.026 0 1.888.191 2.603.555.715.364 1.247.881 1.595 1.532.348.652.532 1.398.532 2.241Zm-4.968 1.685c.604 0 1.044-.153 1.338-.44.293-.287.44-.709.44-1.245 0-.536-.147-.958-.44-1.245-.294-.287-.734-.44-1.338-.44h-1.705v3.37h1.705Zm9.731-6.013h-3.135v13.444h3.135V47.5Z"/>
  <path fill="#00023B" fill-rule="evenodd" d="M195.531 48.772v-3.129h29.947v-2.905l4.278 4.47-4.278 4.468v-2.904h-29.947Zm-106.968 0v-3.129h29.946v-2.905l4.278 4.47-4.278 4.468v-2.904H88.562Z" clip-rule="evenodd"/>
</svg>
